dist/img/menu/menu-icon3.svg

<svg width="19" height="26" viewBox="0 0 19 26" fill="none" xmlns="http://www.w3.org/2000/svg">
<path d="M11 1H3.00002C1.89719 1 1 1.89719 1 3.00002V17.4C1 18.5028 1.89719 19.4001 3.00002 19.4001H10.2V18.6001H3.00002C2.33842 18.6001 1.80002 18.0616 1.80002 17.4V3.00002C1.80002 2.33842 2.33842 1.80002 3.00002 1.80002H11C11.6616 1.80002 12.2 2.33842 12.2 3.00002V14.6001H13V3.00002C13 1.89719 12.1028 1 11 1Z" fill="#BFC0C4"/>
<path d="M16.8364 11.6544L12.9124 6.75035L12.2872 7.25037L16.2112 12.154C16.7204 12.79 17.0004 13.5892 17 14.404V24.2H11.148C9.08165 24.2 7.40006 22.5188 7.40006 20.452V19H6.60004V20.452C6.60004 22.9596 8.64046 25 11.148 25H17.4C17.6213 25 17.8 24.8212 17.8 24.6V14.4044C17.8005 13.4092 17.4585 12.4324 16.8364 11.6544Z" fill="#BFC0C4"/>
<path d="M7.79844 10.4333C8.07922 10.4413 8.34046 10.5581 8.53283 10.7621L13.9085 16.4741L14.4913 15.9257L9.11483 10.2133C8.77522 9.85367 8.31561 9.64771 7.82122 9.63369C7.32162 9.61691 6.85644 9.79888 6.50121 10.1345C6.49681 10.1389 6.46479 10.1693 6.46081 10.1737C5.77723 10.8593 5.7312 11.9353 6.35482 12.6785L9.80006 16.7465V17.9841C9.79963 20.1945 11.1897 22.1997 13.2597 22.9749L13.5405 22.2257C11.7812 21.5669 10.5997 19.8625 10.6 17.9841V16.6001C10.6 16.5057 10.5664 16.4137 10.5052 16.3413L6.96645 12.1625C6.61245 11.7409 6.63847 11.1285 7.04647 10.7201C7.25042 10.5273 7.51681 10.4317 7.79844 10.4333Z" fill="#BFC0C4"/>
<path d="M10.6 1.80013H9.80002V11.8001H10.6V1.80013Z" fill="#BFC0C4"/>
<path d="M8.60003 14.1999H7.80001V18.9999H8.60003V14.1999Z" fill="#BFC0C4"/>
<path d="M8.60003 1.40003H7.80001V10.2H8.60003V1.40003Z" fill="#BFC0C4"/>
<path d="M5.80002 14.1999H3.40001C3.17923 14.1999 3.00003 14.3787 3.00003 14.5999V16.9999C3.00003 17.2211 3.17923 17.3999 3.40001 17.3999H5.80002C6.02081 17.3999 6.20001 17.2211 6.20001 16.9999V14.5999C6.20001 14.3787 6.02081 14.1999 5.80002 14.1999ZM5.40004 16.5999H3.80005V14.9999H5.40004V16.5999Z" fill="#BFC0C4"/>
<path d="M11 1H3.00002C1.89719 1 1 1.89719 1 3.00002V17.4C1 18.5028 1.89719 19.4001 3.00002 19.4001H10.2V18.6001H3.00002C2.33842 18.6001 1.80002 18.0616 1.80002 17.4V3.00002C1.80002 2.33842 2.33842 1.80002 3.00002 1.80002H11C11.6616 1.80002 12.2 2.33842 12.2 3.00002V14.6001H13V3.00002C13 1.89719 12.1028 1 11 1Z" stroke="#BFC0C4" stroke-width="0.5"/>
<path d="M16.8364 11.6544L12.9124 6.75035L12.2872 7.25037L16.2112 12.154C16.7204 12.79 17.0004 13.5892 17 14.404V24.2H11.148C9.08165 24.2 7.40006 22.5188 7.40006 20.452V19H6.60004V20.452C6.60004 22.9596 8.64046 25 11.148 25H17.4C17.6213 25 17.8 24.8212 17.8 24.6V14.4044C17.8005 13.4092 17.4585 12.4324 16.8364 11.6544Z" stroke="#BFC0C4" stroke-width="0.5"/>
<path d="M7.79844 10.4333C8.07922 10.4413 8.34046 10.5581 8.53283 10.7621L13.9085 16.4741L14.4913 15.9257L9.11483 10.2133C8.77522 9.85367 8.31561 9.64771 7.82122 9.63369C7.32162 9.61691 6.85644 9.79888 6.50121 10.1345C6.49681 10.1389 6.46479 10.1693 6.46081 10.1737C5.77723 10.8593 5.7312 11.9353 6.35482 12.6785L9.80006 16.7465V17.9841C9.79963 20.1945 11.1897 22.1997 13.2597 22.9749L13.5405 22.2257C11.7812 21.5669 10.5997 19.8625 10.6 17.9841V16.6001C10.6 16.5057 10.5664 16.4137 10.5052 16.3413L6.96645 12.1625C6.61245 11.7409 6.63847 11.1285 7.04647 10.7201C7.25042 10.5273 7.51681 10.4317 7.79844 10.4333Z" stroke="#BFC0C4" stroke-width="0.5"/>
<path d="M10.6 1.80013H9.80002V11.8001H10.6V1.80013Z" stroke="#BFC0C4" stroke-width="0.5"/>
<path d="M8.60003 14.1999H7.80001V18.9999H8.60003V14.1999Z" stroke="#BFC0C4" stroke-width="0.5"/>
<path d="M8.60003 1.40003H7.80001V10.2H8.60003V1.40003Z" stroke="#BFC0C4" stroke-width="0.5"/>
<path d="M5.80002 14.1999H3.40001C3.17923 14.1999 3.00003 14.3787 3.00003 14.5999V16.9999C3.00003 17.2211 3.17923 17.3999 3.40001 17.3999H5.80002C6.02081 17.3999 6.20001 17.2211 6.20001 16.9999V14.5999C6.20001 14.3787 6.02081 14.1999 5.80002 14.1999ZM5.40004 16.5999H3.80005V14.9999H5.40004V16.5999Z" stroke="#BFC0C4" stroke-width="0.5"/>
</svg>

<svg width="19" height="26" fill="none" xmlns="http://www.w3.org/2000/svg"><path d="M11 1H3c-1.103 0-2 .897-2 2v14.4c0 1.103.897 2 2 2h7.2v-.8H3c-.662 0-1.2-.538-1.2-1.2V3c0-.662.538-1.2 1.2-1.2h8c.662 0 1.2.538 1.2 1.2v11.6h.8V3c0-1.103-.897-2-2-2z" fill="#BFC0C4"/><path d="M16.836 11.654L12.912 6.75l-.625.5 3.924 4.904c.51.636.79 1.435.789 2.25V24.2h-5.852A3.752 3.752 0 017.4 20.452V19h-.8v1.452A4.553 4.553 0 0011.148 25H17.4a.4.4 0 00.4-.4V14.404c0-.995-.341-1.972-.964-2.75z" fill="#BFC0C4"/><path d="M7.798 10.433c.281.008.542.125.735.33l5.376 5.711.582-.548-5.376-5.713a1.84 1.84 0 00-1.294-.58c-.5-.016-.965.166-1.32.502l-.04.039a1.847 1.847 0 00-.106 2.505L9.8 16.746v1.237a5.35 5.35 0 003.46 4.99l.28-.748a4.549 4.549 0 01-2.94-4.242V16.6a.402.402 0 00-.095-.259l-3.539-4.179c-.354-.421-.328-1.034.08-1.442a1.07 1.07 0 01.752-.287z" fill="#BFC0C4"/><path d="M10.6 1.8h-.8v10h.8v-10zm-2 12.4h-.8V19h.8v-4.8zm0-12.8h-.8v8.8h.8V1.4zM5.8 14.2H3.4a.4.4 0 00-.4.4V17c0 .221.18.4.4.4h2.4a.4.4 0 00.4-.4v-2.4a.4.4 0 00-.4-.4zm-.4 2.4H3.8V15h1.6v1.6z" fill="#BFC0C4"/><path d="M11 1H3c-1.103 0-2 .897-2 2v14.4c0 1.103.897 2 2 2h7.2v-.8H3c-.662 0-1.2-.538-1.2-1.2V3c0-.662.538-1.2 1.2-1.2h8c.662 0 1.2.538 1.2 1.2v11.6h.8V3c0-1.103-.897-2-2-2z" stroke="#BFC0C4" stroke-width=".5"/><path d="M16.836 11.654L12.912 6.75l-.625.5 3.924 4.904c.51.636.79 1.435.789 2.25V24.2h-5.852A3.752 3.752 0 017.4 20.452V19h-.8v1.452A4.553 4.553 0 0011.148 25H17.4a.4.4 0 00.4-.4V14.404c0-.995-.341-1.972-.964-2.75z" stroke="#BFC0C4" stroke-width=".5"/><path d="M7.798 10.433c.281.008.542.125.735.33l5.376 5.711.582-.548-5.376-5.713a1.84 1.84 0 00-1.294-.58c-.5-.016-.965.166-1.32.502l-.04.039a1.847 1.847 0 00-.106 2.505L9.8 16.746v1.237a5.35 5.35 0 003.46 4.99l.28-.748a4.549 4.549 0 01-2.94-4.242V16.6a.402.402 0 00-.095-.259l-3.539-4.179c-.354-.421-.328-1.034.08-1.442a1.07 1.07 0 01.752-.287z" stroke="#BFC0C4" stroke-width=".5"/><path d="M10.6 1.8h-.8v10h.8v-10zm-2 12.4h-.8V19h.8v-4.8zm0-12.8h-.8v8.8h.8V1.4zM5.8 14.2H3.4a.4.4 0 00-.4.4V17c0 .221.18.4.4.4h2.4a.4.4 0 00.4-.4v-2.4a.4.4 0 00-.4-.4zm-.4 2.4H3.8V15h1.6v1.6z" stroke="#BFC0C4" stroke-width=".5"/></svg>
